src/img/loyaltyIcon.svg

<svg width="24" height="31" viewBox="0 0 24 31" fill="none" xmlns="http://www.w3.org/2000/svg">
<g clip-path="url(#clip0_0_160)">
<path d="M17.2 23.5V31L11.9 28.9L6.39999 31V23.4C7.79999 25.3 9.49999 24.9 11.2 24.1C11.5 24 11.8 24 12.1 24.1C14 24.9 15.8 25.4 17.2 23.5Z" fill="#00C9C9"/>
<path d="M11.8 6.3C8.8 6.3 6.5 8.7 6.5 11.6C6.5 14.6 8.9 16.9 11.8 16.9C14.7 16.9 17.1 14.5 17.1 11.6C17.1 8.7 14.8 6.3 11.8 6.3Z" fill="#00C9C9"/>
<path d="M23.2 12.1L22.7 11.3C22.4 10.8 22.3 10.2 22.4 9.6L22.7 8.4C23 7.4 22.5 6.3 21.5 5.9L20.6 5.5C20 5.2 19.7 4.7 19.5 4.2L19.1 3C18.8 2 17.8 1.4 16.7 1.5L15.7 1.6C15.1 1.7 14.5 1.5 14 1.2L13.1 0.399997C12.3 -0.200003 11.1 -0.200003 10.3 0.399997L9.60001 1.2C9.20001 1.5 8.70001 1.7 8.00001 1.7L6.90001 1.5C5.90001 1.4 4.90001 2.1 4.50001 3L4.20001 4C4.00001 4.6 3.70001 5.1 3.10001 5.3L2.10001 5.8C1.10001 6.3 0.70001 7.3 1.00001 8.4L1.20001 9.4C1.40001 10 1.20001 10.5 1.00001 11.1L0.40001 12.1C-0.0999904 13 9.59635e-06 14.1 0.80001 14.8L1.50001 15.5C2.00001 15.9 2.20001 16.4 2.30001 17V18.2C2.40001 19.2 3.10001 20.1 4.20001 20.3L5.20001 20.5C5.80001 20.6 6.30001 20.8 6.70001 21.4L7.40001 22.3C8.00001 23.2 9.10001 23.5 10.1 23.1L11 22.7C11.6 22.4 12.1 22.4 12.7 22.7L13.7 23.1C14.7 23.5 15.8 23.2 16.4 22.3L17 21.5C17.3 21 17.8 20.7 18.5 20.6L19.6 20.4C20.6 20.2 21.4 19.3 21.4 18.3L21.5 17.3C21.5 16.7 21.7 16.1 22.2 15.7L23 14.9C23.6 14.1 23.8 13 23.2 12.1ZM11.9 18.6C8.00001 18.6 5.00001 15.5 5.00001 11.7C5.00001 7.9 8.00001 4.8 11.9 4.8C15.7 4.8 18.8 7.9 18.8 11.7C18.7 15.5 15.7 18.6 11.9 18.6Z" fill="#00C9C9"/>
</g>
<defs>
<clipPath id="clip0_0_160">
<rect width="24" height="31" fill="white"/>
</clipPath>
</defs>
</svg>

<svg xmlns="http://www.w3.org/2000/svg" width="24" height="31" fill="none"><g fill="#00C9C9" clip-path="url(#a)"><path d="M17.2 23.5V31l-5.3-2.1L6.4 31v-7.6c1.4 1.9 3.1 1.5 4.8.7.3-.1.6-.1.9 0 1.9.8 3.7 1.3 5.1-.6ZM11.8 6.3c-3 0-5.3 2.4-5.3 5.3 0 3 2.4 5.3 5.3 5.3s5.3-2.4 5.3-5.3-2.3-5.3-5.3-5.3Z"/><path d="m23.2 12.1-.5-.8c-.3-.5-.4-1.1-.3-1.7l.3-1.2c.3-1-.2-2.1-1.2-2.5l-.9-.4c-.6-.3-.9-.8-1.1-1.3L19.1 3c-.3-1-1.3-1.6-2.4-1.5l-1 .1c-.6.1-1.2-.1-1.7-.4l-.9-.8c-.8-.6-2-.6-2.8 0l-.7.8c-.4.3-.9.5-1.6.5l-1.1-.2c-1-.1-2 .6-2.4 1.5l-.3 1c-.2.6-.5 1.1-1.1 1.3l-1 .5C1.1 6.3.7 7.3 1 8.4l.2 1c.2.6 0 1.1-.2 1.7l-.6 1c-.5.9-.4 2 .4 2.7l.7.7c.5.4.7.9.8 1.5v1.2c.1 1 .8 1.9 1.9 2.1l1 .2c.6.1 1.1.3 1.5.9l.7.9c.6.9 1.7 1.2 2.7.8l.9-.4c.6-.3 1.1-.3 1.7 0l1 .4c1 .4 2.1.1 2.7-.8l.6-.8c.3-.5.8-.8 1.5-.9l1.1-.2c1-.2 1.8-1.1 1.8-2.1l.1-1c0-.6.2-1.2.7-1.6l.8-.8c.6-.8.8-1.9.2-2.8Zm-11.3 6.5C8 18.6 5 15.5 5 11.7c0-3.8 3-6.9 6.9-6.9 3.8 0 6.9 3.1 6.9 6.9-.1 3.8-3.1 6.9-6.9 6.9Z"/></g><defs><clipPath id="a"><path fill="#fff" d="M0 0h24v31H0z"/></clipPath></defs></svg>
